X:1
T:Missa tertii toni
T:Rodrigo de Ceballos (c. 1525 - c. 1571)
T:From the Música Colonial archive in Guatemala, manuscript 9-006
T:Missa tertii toni
T:1. Kyrie eleison
C:Rodrigo de Ceballos (c. 1525 - c. 1571)
Z:From the Música Colonial archive
Z:in Guatemala, manuscript 9-006
%%score [ 1 2 3 4 ]
L:1/8
M:4/4
K:C
V:1 treble nm="Soprano" snm="S."
V:2 treble nm="Alto" snm="A."
V:3 treble-8 transpose=-12 nm="Tenor" snm="T."
V:4 bass nm="Bass" snm="B."
V:1
 e4 f2 e2 | c2 d2 e4 | z2 c2 d2 e2 | f2 e3 d c2 | BA Bc d2 e2- | e2 dc B4 | c2 e2 d2 c2- | %7
w: Ky- ri- e|e- lei- son,|ky- ri- e|e- lei- * *|||son, ky- ri- e\_e-|
 cA B2 A4- | A8 || z8 | z8 | z4 z2 e2- | e2 f2 e2 c2 | d4 e4- | e4 z4 | z4 z2 e2 | f2 e2 c2 d2 | %17
w: * * lei- son.||||Chris-|* te e- *|lei- son,|_|Chris-|te e- * lei-|
 e8 || z4 e4 | f2 e2 c2 d2- | d2 cB c4 | A2 B3 A A2- | A2 G2 A4 | z2 c4 B2 | c2 A4 G2 | A4 z2 e2 | %26
w: son.|Ky-|ri- e e- *|||* lei- son,|ky- ri-|e e- lei-|son, ky-|
 d2 c4 B2 | A4 z2 c2 | B2 B2 A2 B2 | c2 A3 G G2 | A8 |] %31
w: ri- e\_e- lei-|son, ky-|ri- e e- *|* * * lei-|son.|
V:2
 z8 | z8 | A4 _B2 A2 | F2 G2 A4 | z2 G2 A2 B2 | c2 A3 G G2 | A2 E2 G2 A2- | A2 GF E4- | E8 || z8 | %10
w: ||Ky- ri- e|e- lei- son,|ky- ri- e|e- lei- * *|son, ky- ri- e\_e-|* lei- * son.|||
 z8 | A4 G2 c2- | cB A2 G2 E2 | F4 E2 A2 | G2 c2 BA GF | E2 c2 B2 A2- | A2 G2 A4- | A8 || A6 A2 | %19
w: |Chris- te e-||lei- son, Chris-|te e- * * * *||* lei- son.|_|Ky- ri-|
 F2 G2 A2 F2 | E4 z4 | z4 z2 A,2 | C2 B,2 A,B, CD | E2 C2 D4 | C2 D2 E4 | z2 A,B, CD EF | %26
w: e e- * lei-|son,|ky-|ri- e e- * * *||* lei- son,|ky- ri- e _ _ _|
 G2 A4 G2 | F2 ED E2 A2- | A2 G2 A2 G2- | G2 F2 E4 | E8 |] %31
w: _ e- *|* lei- * son, ky-|* ri- e e-|* * lei-|son.|
V:3
 z8 | z8 | z8 | z8 | e4 f2 e2 | c2 d2 e4 | z2 c2 d2 e2 | f2 d4 ^cB | ^c8 || z4 z2 e2- | %10
w: ||||Ky- ri- e|e- lei- son,|ky- ri- e|e- lei- * *|son.|Chris-|
 e2 f2 e2 c2- | c2 d2 e4 | z8 | z2 d4 c2 | e3 f g2 e2 | cd ef g2 c2 | d2 B2 A2 d2- | d2 ^cB c4 || %18
w: * te e- *|* lei- son,||Chris- te|e- * * *|* * * * * lei-|son, Chris- te e-|* lei- * son.|
 z8 | z8 | z4 e4 | f2 e2 c2 d2 | e8 | z8 | z2 A2 c2 B2 | AB cd e2 c2 | d2 e2 f4 | d4 (3cBc (3dec | %28
w: ||Ky-|ri- e e- lei-|son,||ky- ri- e-||||
 d2 e2 A2 e2- | e2 dc B4 | A8 |] %31
w: * * * e-|* * * lei-|son.|
V:4
 z8 | z8 | z8 | z8 | z8 | z8 | A,4 _B,2 A,2 | F,2 G,2 A,4- | A,8 || A,4 G,2 C2- | CB, A,2 G,2 A,2 | %11
w: ||||||Ky- ri- e|e- lei- son.||Chris- te e-||
 F,4 E,2 A,2- | A,2 F,2 G,2 A,2 | D,4 A,4 | z2 A,2 G,2 C2- | CB, A,2 G,2 A,2 | D,2 E,2 F,2 D,2 | %17
w: lei- son, Chris-|* te e- *|lei- son,|Chris- te e-||* * * lei-|
 A,8 || z8 | z8 | A,6 A,2 | F,2 G,2 A,2 F,2 | E,4 z2 A,2- | A,2 A,2 F,2 G,2 | A,2 F,2 E,4 | %25
w: son.|||Ky- ri-|e e- * lei-|son, ky-|* ri- e e-|* lei- son,|
 z4 A,4 | _B,2 A,2 F,2 G,2 | A,8 | z2 E,2 F,2 E,2 | C,2 D,2 E,4 | A,8 |] %31
w: ky-|ri- e e- lei-|son,|ky- ri- e|e- * lei-|son.|

